src/DGGeoclicker/skin/basic/img/DGPopup__ratingStar.svg

<svg xmlns="http://www.w3.org/2000/svg" width="14" height="14"><path fill="#FFC84B" d="M6.999 0l1.749 4.989 5.249.002-4.167 3.717 1.494 5.294-4.325-3.131-4.325 3.131 1.494-5.294-4.168-3.717 5.249-.002 1.75-4.989z"/></svg>

<svg xmlns="http://www.w3.org/2000/svg" width="14" height="14">
    <path d="M 6.999,0 8.748,4.989 13.997,4.991 9.83,8.708 11.324,14.002 6.999,10.871 2.674,14.002 4.168,8.708 0,4.991 5.249,4.989 6.999,0 z" fill="#ffc84b"/>
</svg>
